; generated by PrusaSlicer 2.2.0+linux-x64 on 2020-04-29 at 02:21:09 UTC

; 

; external perimeters extrusion width = 0.87mm
; perimeters extrusion width = 0.87mm
; infill extrusion width = 0.87mm
; solid infill extrusion width = 0.87mm
; top infill extrusion width = 0.87mm
; first layer extrusion width = 0.87mm

M201 X4500 Y4500 Z500 E10000 ; sets maximum accelerations, mm/sec^2
M203 X500 Y500 Z12 E120 ; sets maximum feedrates, mm/sec
M204 P1500 R1500 T1500 ; sets acceleration (P, T) and retract acceleration (R), mm/sec^2
M205 X10.00 Y10.00 Z0.20 E2.50 ; sets the jerk limits, mm/sec
M205 S0 T0 ; sets the minimum extruding and travel feed rate, mm/sec
M107
M190 S60 ; set bed temperature and wait for it to be reached
M104 S215 ; set temperature
M107 ;start with the fan off
G28 X0 Y0 ;move X/Y to min endstops
G28 Z0 ;move Z to min endstops
G1 Z15.0 F120 ;move the platform down 15mm
G92 E0 ;zero the extruded length
G1 F200 E3 ;extrude 3mm of feed stock
G92 E0 ;zero the extruded length again
G1 F120
G0 Y20 F120
M117 Printing...
G5
M109 S215 ; set temperature and wait for it to be reached
G21 ; set units to millimeters
G90 ; use absolute coordinates
M82 ; use absolute distances for extrusion
G92 E0
; Filament gcode
G1 Z0.280 F7200.000
G1 E-5.00000 F2400.00000
G92 E0
G1 X82.351 Y70.759 F7200.000
G1 E5.00000 F2400.00000
G1 F1800.000
G1 X82.917 Y70.133 E5.07958
G1 X83.561 Y69.577 E5.15976
G1 X84.263 Y69.109 E5.23934
G1 X85.024 Y68.729 E5.31952
G1 X85.832 Y68.445 E5.40031
G1 X86.670 Y68.265 E5.48110
G1 X87.517 Y68.192 E5.56128
G1 X122.327 Y68.190 E8.84320
G1 X123.208 Y68.248 E8.92641
G1 X124.080 Y68.421 E9.01024
G1 X124.916 Y68.704 E9.09345
G1 X125.708 Y69.093 E9.17667
G1 X126.444 Y69.580 E9.25988
G1 X127.115 Y70.164 E9.34371
G1 X127.704 Y70.830 E9.42753
G1 X128.198 Y71.561 E9.51074
G1 X145.785 Y102.063 E12.83030
G1 X146.294 Y103.547 E12.97828
G1 X146.450 Y105.109 E13.12627
G1 X146.244 Y106.665 E13.27425
G1 X145.688 Y108.133 E13.42223
G1 X128.126 Y138.560 E16.73453
G1 X127.608 Y139.291 E16.81896
G1 X127.000 Y139.948 E16.90339
G1 X126.310 Y140.519 E16.98782
G1 X125.551 Y140.995 E17.07225
G1 X124.791 Y141.346 E17.15122
G1 X123.993 Y141.601 E17.23019
G1 X123.164 Y141.757 E17.30976
G1 X122.328 Y141.810 E17.38873
G1 X87.544 Y141.809 E20.66822
G1 X86.001 Y141.600 E20.81500
G1 X84.546 Y141.046 E20.96177
G1 X83.759 Y140.568 E21.04863
G1 X83.043 Y139.988 E21.13548
G1 X82.413 Y139.317 E21.22234
G1 X81.878 Y138.566 E21.30919
G1 X64.310 Y108.128 E24.62271
G1 X63.742 Y106.610 E24.77552
G1 X63.549 Y105.000 E24.92833
G1 X63.743 Y103.385 E25.08175
G1 X64.312 Y101.867 E25.23456
G1 X81.864 Y71.456 E28.54504
G1 X82.282 Y70.858 E28.61391
G1 E27.36391 F2400.00000
G1 F5760.000
G1 X82.917 Y70.133 E26.98264
G1 X83.561 Y69.577 E26.64600
G1 X84.263 Y69.109 E26.31190
G1 X85.024 Y68.729 E25.97527
G1 X85.832 Y68.445 E25.63608
G1 X86.670 Y68.265 E25.29689
G1 X87.517 Y68.192 E24.96025
G1 X90.445 Y68.192 E23.80141
G1 E23.61391 F2400.00000
G92 E0
G1 X124.190 Y121.802 F7200.000
G1 E5.00000 F2400.00000
G1 F1800.000
G1 X122.864 Y123.205 E5.18200
G1 X121.436 Y124.504 E5.36400
G1 X119.914 Y125.691 E5.54599
G1 X118.306 Y126.760 E5.72799
G1 X116.622 Y127.704 E5.90999
G1 X114.872 Y128.518 E6.09199
G1 X113.065 Y129.197 E6.27401
G1 X111.204 Y129.739 E6.45677
G1 X109.323 Y130.137 E6.63798
G1 X107.410 Y130.392 E6.81998
G1 X105.482 Y130.501 E7.00200
G1 X103.544 Y130.464 E7.18476
G1 X101.631 Y130.282 E7.36597
G1 X99.729 Y129.955 E7.54797
G1 X97.856 Y129.485 E7.72997
G1 X96.025 Y128.875 E7.91198
G1 X94.238 Y128.124 E8.09474
G1 X92.527 Y127.248 E8.27596
G1 X90.880 Y126.241 E8.45796
G1 X89.314 Y125.112 E8.63997
G1 X87.832 Y123.862 E8.82273
G1 X86.460 Y122.516 E9.00395
G1 X85.188 Y121.064 E9.18595
G1 X84.030 Y119.519 E9.36794
G1 X82.992 Y117.892 E9.54994
G1 X82.080 Y116.191 E9.73194
G1 X81.300 Y114.425 E9.91394
G1 X80.655 Y112.606 E10.09596
G1 X80.148 Y110.735 E10.27872
G1 X79.786 Y108.847 E10.45993
G1 X79.567 Y106.929 E10.64193
G1 X79.494 Y105.000 E10.82393
G1 X79.567 Y103.071 E11.00592
G1 X79.786 Y101.153 E11.18792
G1 X80.149 Y99.257 E11.36992
G1 X80.655 Y97.394 E11.55192
G1 X81.300 Y95.575 E11.73392
G1 X82.080 Y93.809 E11.91591
G1 X82.992 Y92.108 E12.09791
G1 X84.030 Y90.481 E12.27991
G1 X85.188 Y88.936 E12.46191
G1 X86.460 Y87.484 E12.64391
G1 X87.838 Y86.132 E12.82590
G1 X89.314 Y84.888 E13.00792
G1 X90.887 Y83.755 E13.19068
G1 X92.527 Y82.752 E13.37190
G1 X94.245 Y81.873 E13.55389
G1 X96.025 Y81.125 E13.73589
G1 X97.856 Y80.515 E13.91789
G1 X99.729 Y80.045 E14.09989
G1 X101.631 Y79.718 E14.28191
G1 X103.561 Y79.535 E14.46467
G1 X105.483 Y79.499 E14.64588
G1 X107.410 Y79.608 E14.82788
G1 X109.324 Y79.863 E15.00990
G1 X111.220 Y80.265 E15.19266
G1 X113.065 Y80.803 E15.37387
G1 X114.872 Y81.482 E15.55587
G1 X116.622 Y82.296 E15.73787
G1 X118.306 Y83.240 E15.91986
G1 X119.914 Y84.309 E16.10186
G1 X121.436 Y85.496 E16.28386
G1 X122.864 Y86.795 E16.46586
G1 X124.190 Y88.198 E16.64786
G1 X125.405 Y89.697 E16.82985
G1 X126.504 Y91.284 E17.01185
G1 X127.480 Y92.950 E17.19385
G1 X128.327 Y94.685 E17.37587
G1 X129.043 Y96.486 E17.55863
G1 X129.616 Y98.321 E17.73984
G1 X130.050 Y100.202 E17.92184
G1 X130.342 Y102.110 E18.10384
G1 X130.488 Y104.035 E18.28586
G1 X130.487 Y105.973 E18.46862
G1 X130.342 Y107.890 E18.64983
G1 X130.050 Y109.798 E18.83183
G1 X129.616 Y111.679 E19.01383
G1 X129.040 Y113.522 E19.19582
G1 X128.327 Y115.315 E19.37782
G1 X127.480 Y117.050 E19.55982
G1 X126.504 Y118.716 E19.74182
G1 X125.405 Y120.303 E19.92382
G1 X124.265 Y121.709 E20.09450
G1 X123.580 Y121.268 F7200.000
G1 F1800.000
G1 X122.296 Y122.627 E20.27072
G1 X120.914 Y123.884 E20.44693
G1 X119.440 Y125.034 E20.62315
G1 X117.883 Y126.068 E20.79936
G1 X116.253 Y126.982 E20.97557
G1 X114.558 Y127.771 E21.15179
G1 X112.809 Y128.428 E21.32801
G1 X111.007 Y128.953 E21.50499
G1 X109.186 Y129.338 E21.68043
G1 X107.333 Y129.585 E21.85665
G1 X105.467 Y129.691 E22.03287
G1 X103.591 Y129.655 E22.20984
G1 X101.738 Y129.479 E22.38529
G1 X99.896 Y129.162 E22.56150
G1 X98.083 Y128.707 E22.73772
G1 X96.310 Y128.116 E22.91394
G1 X94.580 Y127.389 E23.09091
G1 X92.923 Y126.541 E23.26636
G1 X91.329 Y125.566 E23.44257
G1 X89.812 Y124.473 E23.61880
G1 X88.377 Y123.263 E23.79577
G1 X87.049 Y121.960 E23.97122
G1 X85.818 Y120.553 E24.14743
G1 X84.697 Y119.058 E24.32365
G1 X83.692 Y117.482 E24.49986
G1 X82.809 Y115.835 E24.67607
G1 X82.053 Y114.126 E24.85229
G1 X81.428 Y112.364 E25.02851
G1 X80.937 Y110.552 E25.20549
G1 X80.587 Y108.725 E25.38093
G1 X80.375 Y106.868 E25.55715
G1 X80.305 Y105.000 E25.73336
G1 X80.375 Y103.132 E25.90958
G1 X80.587 Y101.275 E26.08579
G1 X80.939 Y99.440 E26.26201
G1 X81.428 Y97.636 E26.43822
G1 X82.053 Y95.874 E26.61443
G1 X82.809 Y94.165 E26.79065
G1 X83.692 Y92.518 E26.96686
G1 X84.697 Y90.942 E27.14308
G1 X85.818 Y89.447 E27.31929
G1 X87.049 Y88.040 E27.49551
G1 X88.383 Y86.731 E27.67172
G1 X89.812 Y85.527 E27.84794
G1 X91.336 Y84.430 E28.02492
G1 X92.923 Y83.459 E28.20037
G1 X94.587 Y82.607 E28.37658
G1 X96.310 Y81.884 E28.55279
G1 X98.083 Y81.293 E28.72901
G1 X99.896 Y80.838 E28.90522
G1 X101.738 Y80.521 E29.08145
G1 X103.607 Y80.344 E29.25842
G1 X105.467 Y80.309 E29.43387
G1 X107.333 Y80.415 E29.61008
G1 X109.186 Y80.662 E29.78630
G1 X111.022 Y81.051 E29.96328
G1 X112.809 Y81.572 E30.13872
G1 X114.558 Y82.229 E30.31494
G1 X116.253 Y83.018 E30.49115
G1 X117.883 Y83.932 E30.66737
G1 X119.440 Y84.966 E30.84358
G1 X120.914 Y86.116 E31.01980
G1 X122.296 Y87.373 E31.19601
G1 X123.580 Y88.732 E31.37223
G1 X124.757 Y90.184 E31.54844
G1 X125.821 Y91.720 E31.72466
G1 X126.766 Y93.333 E31.90087
G1 X127.586 Y95.013 E32.07709
G1 X128.279 Y96.757 E32.25407
G1 X128.834 Y98.533 E32.42951
G1 X129.254 Y100.354 E32.60573
G1 X129.536 Y102.202 E32.78194
G1 X129.678 Y104.066 E32.95816
G1 X129.677 Y105.943 E33.13514
G1 X129.536 Y107.798 E33.31058
G1 X129.254 Y109.646 E33.48680
G1 X128.834 Y111.467 E33.66301
G1 X128.276 Y113.251 E33.83923
G1 X127.586 Y114.988 E34.01544
G1 X126.766 Y116.667 E34.19166
G1 X125.821 Y118.280 E34.36787
G1 X124.757 Y119.816 E34.54409
G1 X123.655 Y121.175 E34.70899
G1 X123.838 Y122.025 F7200.000
G1 E33.45899 F2400.00000
G1 F5760.000
G1 X122.296 Y122.627 E32.67180
G1 X120.914 Y123.884 E31.93198
G1 X119.440 Y125.034 E31.19216
G1 X117.883 Y126.068 E30.45234
G1 X116.658 Y126.755 E29.89649
G1 E29.70899 F2400.00000
G92 E0
G1 X121.602 Y133.755 F7200.000
G1 E5.00000 F2400.00000
G1 F1800.000
G1 X88.398 Y133.755 E8.13050
G1 X71.796 Y105.000 E11.26100
G1 X88.398 Y76.245 E14.39150
G1 X121.602 Y76.245 E17.52200
G1 X138.204 Y105.000 E20.65250
G1 X121.662 Y133.651 E23.77169
G1 X122.069 Y134.565 F7200.000
G1 F1800.000
G1 X87.931 Y134.565 E26.99036
G1 X70.861 Y105.000 E30.20903
G1 X87.931 Y75.435 E33.42771
G1 X122.069 Y75.435 E36.64638
G1 X139.139 Y105.000 E39.86505
G1 X122.129 Y134.461 E43.07241
G1 X121.377 Y134.165 F7200.000
G1 E41.82241 F2400.00000
G1 F5760.000
G1 X113.129 Y134.488 E38.25991
G1 E38.07241 F2400.00000
G92 E0
G1 X94.826 Y133.512 F7200.000
G1 E5.00000 F2400.00000
G1 F1800.000
G1 X80.945 Y119.631 E6.86600
G1 X82.523 Y122.364 E7.16591
G1 X93.307 Y133.148 E8.61561
G1 X92.152 Y133.148 E8.72538
G1 X84.100 Y125.096 E9.80777
G1 X85.678 Y127.828 E10.10768
G1 X90.997 Y133.148 E10.82276
G1 X89.842 Y133.148 E10.93254
G1 X86.260 Y129.565 E11.41417
G1 E10.16417 F2400.00000
G1 F5760.000
G1 X89.842 Y133.148 E8.15858
G1 X90.997 Y133.148 E7.70147
G1 X89.032 Y131.183 E6.60167
G1 E6.41417 F2400.00000
G92 E0
G1 X112.864 Y76.488 F7200.000
G1 E5.00000 F2400.00000
G1 F1800.000
G1 X120.039 Y83.663 E5.96452
G1 X118.623 Y82.722 E6.12613
G1 X117.075 Y81.854 E6.29484
G1 X112.074 Y76.852 E6.96717
G1 X110.919 Y76.852 E7.07694
G1 X114.917 Y80.850 E7.61436
G1 X113.089 Y80.177 E7.79951
G1 X109.764 Y76.852 E8.24646
G1 X108.609 Y76.852 E8.35624
G1 X111.459 Y79.701 E8.73925
G1 X109.985 Y79.382 E8.88260
G1 X107.455 Y76.852 E9.22271
G1 X106.300 Y76.852 E9.33248
G1 X108.602 Y79.154 E9.64194
G1 X107.286 Y78.993 E9.76801
G1 X105.145 Y76.852 E10.05576
G1 X103.990 Y76.852 E10.16553
G1 X106.061 Y78.923 E10.44393
G1 X105.494 Y78.891 E10.49791
G1 X104.886 Y78.903 E10.55577
G1 X102.835 Y76.852 E10.83138
G1 X101.681 Y76.852 E10.94115
G1 X103.752 Y78.924 E11.21965
G1 X103.527 Y78.928 E11.24110
G1 X102.682 Y79.008 E11.32178
G1 X100.526 Y76.852 E11.61159
G1 X99.371 Y76.852 E11.72136
G1 X101.627 Y79.108 E12.02459
G1 X100.636 Y79.272 E12.12002
G1 X98.216 Y76.852 E12.44535
G1 X97.061 Y76.852 E12.55513
G1 X99.651 Y79.442 E12.90325
G1 X98.725 Y79.671 E12.99392
G1 X95.907 Y76.852 E13.37279
G1 X94.752 Y76.852 E13.48256
G1 X97.802 Y79.902 E13.89259
G1 X96.929 Y80.184 E13.97981
G1 X93.597 Y76.852 E14.42768
G1 X92.442 Y76.852 E14.53746
G1 X96.062 Y80.473 E15.02414
G1 X95.811 Y80.556 E15.04933
G1 X95.234 Y80.799 E15.10885
G1 X91.287 Y76.852 E15.63937
G1 X90.133 Y76.852 E15.74915
G1 X94.420 Y81.140 E16.32557
G1 X93.989 Y81.321 E16.37007
G1 X93.630 Y81.505 E16.40835
G1 X88.978 Y76.852 E17.03380
G1 X88.749 Y76.852 E17.05556
G1 X88.410 Y77.439 E17.11999
G1 X92.867 Y81.896 E17.71909
G1 X92.111 Y82.295 E17.80034
G1 X87.987 Y78.172 E18.35463
G1 X87.565 Y78.904 E18.43499
G1 X91.394 Y82.733 E18.94977
G1 X90.677 Y83.171 E19.02961
G1 X87.142 Y79.636 E19.50488
G1 X86.719 Y80.368 E19.58524
G1 X89.998 Y83.647 E20.02602
G1 X89.327 Y84.130 E20.10466
G1 X86.297 Y81.100 E20.51201
G1 X85.874 Y81.832 E20.59237
G1 X88.674 Y84.633 E20.96884
G1 X88.048 Y85.161 E21.04675
G1 X85.451 Y82.564 E21.39580
G1 X85.028 Y83.296 E21.47616
G1 X87.422 Y85.689 E21.79786
G1 X86.839 Y86.261 E21.87548
G1 X84.606 Y84.028 E22.17565
G1 X84.183 Y84.761 E22.25601
G1 X86.256 Y86.833 E22.53464
G1 X86.018 Y87.066 E22.56629
G1 X85.699 Y87.431 E22.61237
G1 X83.760 Y85.493 E22.87295
G1 X83.338 Y86.225 E22.95331
G1 X85.160 Y88.047 E23.19825
G1 X84.628 Y88.670 E23.27612
G1 X82.915 Y86.957 E23.50646
G1 X82.492 Y87.689 E23.58682
G1 X84.134 Y89.330 E23.80745
G1 X83.639 Y89.990 E23.88586
G1 X82.070 Y88.421 E24.09679
G1 X81.647 Y89.153 E24.17715
G1 X83.179 Y90.685 E24.38311
G1 X82.729 Y91.391 E24.46261
G1 X81.224 Y89.885 E24.66494
G1 X80.802 Y90.618 E24.74530
G1 X82.299 Y92.115 E24.94663
G1 X81.896 Y92.867 E25.02771
G1 X80.379 Y91.350 E25.23169
G1 X79.956 Y92.082 E25.31205
G1 X81.498 Y93.624 E25.51933
G1 X81.144 Y94.424 E25.60256
G1 X79.534 Y92.814 E25.81907
G1 X79.111 Y93.546 E25.89943
G1 X80.790 Y95.225 E26.12516
G1 X80.480 Y96.070 E26.21068
G1 X78.688 Y94.278 E26.45152
G1 X78.265 Y95.010 E26.53188
G1 X80.177 Y96.922 E26.78891
G1 X80.074 Y97.213 E26.81823
G1 X79.912 Y97.812 E26.87719
G1 X77.843 Y95.742 E27.15536
G1 X77.420 Y96.474 E27.23572
G1 X79.666 Y98.720 E27.53758
G1 X79.557 Y99.120 E27.57702
G1 X79.453 Y99.662 E27.62947
G1 X76.997 Y97.207 E27.95959
G1 X76.575 Y97.939 E28.03995
G1 X79.267 Y100.631 E28.40193
G1 X79.185 Y101.061 E28.44355
G1 X79.119 Y101.638 E28.49872
G1 X76.152 Y98.671 E28.89762
G1 X75.729 Y99.403 E28.97798
G1 X79.001 Y102.675 E29.41781
G1 X78.961 Y103.025 E29.45133
G1 X78.933 Y103.762 E29.52140
G1 X75.307 Y100.135 E30.00892
G1 X74.884 Y100.867 E30.08928
G1 X78.891 Y104.874 E30.62797
G1 X78.927 Y106.065 E30.74117
G1 X74.461 Y101.599 E31.34146
G1 X74.039 Y102.331 E31.42182
G1 X78.997 Y107.290 E32.08840
G1 X79.146 Y108.593 E32.21310
G1 X73.616 Y103.064 E32.95648
G1 X73.193 Y103.796 E33.03684
G1 X79.386 Y109.989 E33.86938
G1 X79.555 Y110.871 E33.95481
G1 X79.719 Y111.477 E34.01441
G1 X72.771 Y104.528 E34.94854
G1 X72.498 Y105.000 E35.00038
G1 X73.058 Y105.970 E35.10684
G1 X80.184 Y113.096 E36.06481
G1 X80.735 Y114.650 E36.22152
G1 X80.855 Y114.922 E36.24979
G1 X74.635 Y108.702 E37.08592
G1 X76.213 Y111.435 E37.38582
G1 X81.879 Y117.100 E38.14749
G1 X82.468 Y118.199 E38.26601
G1 X83.530 Y119.866 E38.45387
G1 X83.655 Y120.031 E38.47357
G1 X77.790 Y114.167 E39.26195
G1 X79.368 Y116.899 E39.56185
G1 X95.616 Y133.148 E41.74617
G1 X96.771 Y133.148 E41.85594
G1 X89.924 Y126.301 E42.77641
G1 X90.543 Y126.747 E42.84899
G1 X92.230 Y127.778 E43.03686
G1 X92.899 Y128.121 E43.10836
G1 X97.926 Y133.148 E43.78413
G1 X99.081 Y133.148 E43.89391
G1 X95.062 Y129.129 E44.43417
G1 X95.811 Y129.443 E44.51138
G1 X96.892 Y129.804 E44.61968
G1 X100.236 Y133.148 E45.06921
G1 X101.390 Y133.148 E45.17898
G1 X98.521 Y130.278 E45.56474
G1 X99.603 Y130.550 E45.67079
G1 X100.019 Y130.621 E45.71092
G1 X102.545 Y133.148 E46.05053
G1 X103.700 Y133.148 E46.16030
G1 X101.414 Y130.861 E46.46766
G1 X102.701 Y130.994 E46.59071
G1 X104.855 Y133.148 E46.88022
G1 X106.010 Y133.148 E46.99000
G1 X103.941 Y131.079 E47.26808
G1 X105.119 Y131.102 E47.38003
G1 X107.164 Y133.148 E47.65506
G1 X108.319 Y133.148 E47.76483
G1 X106.238 Y131.067 E48.04458
G1 X107.331 Y131.005 E48.14862
G1 X109.474 Y133.148 E48.43671
G1 X110.629 Y133.148 E48.54649
G1 X108.359 Y130.878 E48.85160
G1 X109.378 Y130.742 E48.94933
G1 X111.784 Y133.148 E49.27270
G1 X112.938 Y133.148 E49.38247
G1 X110.335 Y130.544 E49.73250
G1 X111.288 Y130.343 E49.82513
G1 X114.093 Y133.148 E50.20223
G1 X115.248 Y133.148 E50.31200
G1 X112.186 Y130.086 E50.72360
G1 X113.081 Y129.825 E50.81214
G1 X116.403 Y133.148 E51.25877
G1 X117.558 Y133.148 E51.36854
G1 X113.931 Y129.521 E51.85613
G1 X114.770 Y129.205 E51.94136
G1 X118.713 Y133.148 E52.47136
G1 X119.867 Y133.148 E52.58113
G1 X115.579 Y128.859 E53.15766
G1 X116.367 Y128.493 E53.24029
G1 X121.022 Y133.148 E53.86609
G1 X121.251 Y133.148 E53.88785
G1 X121.590 Y132.561 E53.95228
G1 X117.140 Y128.110 E54.55055
G1 X117.880 Y127.695 E54.63119
G1 X122.013 Y131.829 E55.18681
G1 X122.435 Y131.096 E55.26717
G1 X118.619 Y127.281 E55.78015
G1 X119.313 Y126.820 E55.85933
G1 X122.858 Y130.364 E56.33584
G1 X123.281 Y129.632 E56.41620
G1 X120.007 Y126.359 E56.85628
G1 X120.269 Y126.184 E56.88620
G1 X120.673 Y125.870 E56.93486
G1 X123.703 Y128.900 E57.34227
G1 X124.126 Y128.168 E57.42263
G1 X121.322 Y125.363 E57.79964
G1 X121.961 Y124.848 E57.87770
G1 X124.549 Y127.436 E58.22562
G1 X124.971 Y126.704 E58.30598
G1 X122.565 Y124.298 E58.62943
G1 X123.170 Y123.748 E58.70713
G1 X125.394 Y125.972 E59.00611
G1 X125.817 Y125.240 E59.08647
G1 X123.740 Y123.162 E59.36568
G1 X124.301 Y122.569 E59.44333
G1 X126.240 Y124.507 E59.70396
