; generated by PrusaSlicer 2.2.0+win64 on 2020-04-28 at 22:57:58 UTC

; 

; external perimeters extrusion width = 0.87mm
; perimeters extrusion width = 0.87mm
; infill extrusion width = 0.87mm
; solid infill extrusion width = 0.87mm
; top infill extrusion width = 0.87mm
; first layer extrusion width = 0.87mm

M201 X4500 Y4500 Z500 E10000 ; sets maximum accelerations, mm/sec^2
M203 X500 Y500 Z12 E120 ; sets maximum feedrates, mm/sec
M204 P1500 R1500 T1500 ; sets acceleration (P, T) and retract acceleration (R), mm/sec^2
M205 X10.00 Y10.00 Z0.20 E2.50 ; sets the jerk limits, mm/sec
M205 S0 T0 ; sets the minimum extruding and travel feed rate, mm/sec
M107
M190 S60 ; set bed temperature and wait for it to be reached
M104 S215 ; set temperature
M107 ;start with the fan off
G28 X0 Y0 ;move X/Y to min endstops
G28 Z0 ;move Z to min endstops
G1 Z15.0 F120 ;move the platform down 15mm
G92 E0 ;zero the extruded length
G1 F200 E3 ;extrude 3mm of feed stock
G92 E0 ;zero the extruded length again
G1 F120
G0 Y20 F120
M117 Printing...
G5
M109 S215 ; set temperature and wait for it to be reached
G21 ; set units to millimeters
G90 ; use absolute coordinates
M82 ; use absolute distances for extrusion
G92 E0
; Filament gcode
G1 Z0.280 F7200.000
G1 E-5.00000 F2400.00000
G92 E0
G1 X82.351 Y70.759 F7200.000
G1 E5.00000 F2400.00000
G1 F1800.000
G1 X82.917 Y70.133 E5.07958
G1 X83.561 Y69.577 E5.15976
G1 X84.263 Y69.109 E5.23934
G1 X85.024 Y68.729 E5.31952
G1 X85.832 Y68.445 E5.40031
G1 X86.670 Y68.265 E5.48110
G1 X87.517 Y68.192 E5.56128
G1 X122.327 Y68.190 E8.84320
G1 X123.208 Y68.248 E8.92641
G1 X124.080 Y68.421 E9.01024
G1 X124.916 Y68.704 E9.09345
G1 X125.708 Y69.093 E9.17667
G1 X126.444 Y69.580 E9.25988
G1 X127.115 Y70.164 E9.34371
G1 X127.704 Y70.830 E9.42753
G1 X128.198 Y71.561 E9.51074
G1 X145.785 Y102.063 E12.83030
G1 X146.294 Y103.547 E12.97828
G1 X146.450 Y105.109 E13.12627
G1 X146.244 Y106.665 E13.27425
G1 X145.688 Y108.133 E13.42223
G1 X128.126 Y138.560 E16.73453
G1 X127.608 Y139.291 E16.81896
G1 X127.000 Y139.948 E16.90339
G1 X126.310 Y140.519 E16.98782
G1 X125.551 Y140.995 E17.07225
G1 X124.791 Y141.346 E17.15122
G1 X123.993 Y141.601 E17.23019
G1 X123.164 Y141.757 E17.30976
G1 X122.328 Y141.810 E17.38873
G1 X87.544 Y141.809 E20.66822
G1 X86.001 Y141.600 E20.81500
G1 X84.546 Y141.046 E20.96177
G1 X83.759 Y140.568 E21.04863
G1 X83.043 Y139.988 E21.13548
G1 X82.413 Y139.317 E21.22234
G1 X81.878 Y138.566 E21.30919
G1 X64.310 Y108.128 E24.62271
G1 X63.742 Y106.610 E24.77552
G1 X63.549 Y105.000 E24.92833
G1 X63.743 Y103.385 E25.08175
G1 X64.312 Y101.867 E25.23456
G1 X81.864 Y71.456 E28.54504
G1 X82.282 Y70.858 E28.61391
G1 E27.36391 F2400.00000
G1 F5760.000
G1 X82.917 Y70.133 E26.98264
G1 X83.561 Y69.577 E26.64600
G1 X84.263 Y69.109 E26.31190
G1 X85.024 Y68.729 E25.97527
G1 X85.832 Y68.445 E25.63608
G1 X86.670 Y68.265 E25.29689
G1 X87.517 Y68.192 E24.96025
G1 X90.445 Y68.192 E23.80141
G1 E23.61391 F2400.00000
G92 E0
G1 X118.766 Y116.199 F7200.000
G1 E5.00000 F2400.00000
G1 F1800.000
G1 X117.695 Y117.399 E5.15161
G1 X116.510 Y118.507 E5.30458
G1 X115.234 Y119.498 E5.45691
G1 X113.873 Y120.369 E5.60922
G1 X112.439 Y121.112 E5.76153
G1 X110.943 Y121.722 E5.91383
G1 X109.398 Y122.193 E6.06614
G1 X107.816 Y122.521 E6.21844
G1 X106.211 Y122.705 E6.37075
G1 X104.596 Y122.742 E6.52305
G1 X102.984 Y122.631 E6.67536
G1 X101.389 Y122.375 E6.82766
G1 X99.824 Y121.975 E6.97997
G1 X98.302 Y121.434 E7.13228
G1 X96.836 Y120.757 E7.28458
G1 X95.437 Y119.949 E7.43689
G1 X94.117 Y119.017 E7.58919
G1 X92.887 Y117.970 E7.74150
G1 X91.758 Y116.814 E7.89380
G1 X90.739 Y115.561 E8.04611
G1 X89.837 Y114.221 E8.19841
G1 X89.062 Y112.804 E8.35072
G1 X88.418 Y111.322 E8.50303
G1 X87.912 Y109.788 E8.65533
G1 X87.547 Y108.214 E8.80764
G1 X87.327 Y106.614 E8.95994
G1 X87.254 Y105.000 E9.11225
G1 X87.327 Y103.386 E9.26455
G1 X87.547 Y101.786 E9.41686
G1 X87.912 Y100.212 E9.56916
G1 X88.416 Y98.685 E9.72078
G1 X89.062 Y97.197 E9.87375
G1 X89.837 Y95.779 E10.02608
G1 X90.739 Y94.439 E10.17838
G1 X91.758 Y93.186 E10.33069
G1 X92.887 Y92.030 E10.48299
G1 X94.117 Y90.983 E10.63530
G1 X95.437 Y90.051 E10.78761
G1 X96.836 Y89.243 E10.93991
G1 X98.302 Y88.566 E11.09222
G1 X99.824 Y88.025 E11.24452
G1 X101.389 Y87.625 E11.39683
G1 X102.984 Y87.369 E11.54913
G1 X104.589 Y87.259 E11.70075
G1 X106.211 Y87.295 E11.85372
G1 X107.816 Y87.479 E12.00605
G1 X109.398 Y87.807 E12.15835
G1 X110.943 Y88.278 E12.31066
G1 X112.439 Y88.888 E12.46296
G1 X113.873 Y89.631 E12.61527
G1 X115.234 Y90.502 E12.76758
G1 X116.510 Y91.493 E12.91988
G1 X117.690 Y92.595 E13.07219
G1 X118.766 Y93.801 E13.22449
G1 X119.727 Y95.099 E13.37680
G1 X120.567 Y96.479 E13.52910
G1 X121.274 Y97.923 E13.68072
G1 X121.852 Y99.439 E13.83369
G1 X122.288 Y100.995 E13.98602
G1 X122.581 Y102.584 E14.13832
G1 X122.728 Y104.192 E14.29063
G1 X122.728 Y105.808 E14.44293
G1 X122.581 Y107.416 E14.59524
G1 X122.288 Y109.005 E14.74754
G1 X121.852 Y110.561 E14.89985
G1 X121.277 Y112.070 E15.05216
G1 X120.567 Y113.521 E15.20446
G1 X119.727 Y114.901 E15.35677
G1 X118.837 Y116.103 E15.49776
G1 X118.137 Y115.688 F7200.000
G1 F1800.000
G1 X117.115 Y116.833 E15.64243
G1 X115.984 Y117.890 E15.78844
G1 X114.766 Y118.836 E15.93380
G1 X113.468 Y119.667 E16.07915
G1 X112.099 Y120.376 E16.22449
G1 X110.671 Y120.958 E16.36984
G1 X109.197 Y121.407 E16.51519
G1 X107.687 Y121.721 E16.66053
G1 X106.156 Y121.896 E16.80588
G1 X104.614 Y121.931 E16.95123
G1 X103.076 Y121.826 E17.09658
G1 X101.554 Y121.581 E17.24192
G1 X100.061 Y121.199 E17.38727
G1 X98.608 Y120.683 E17.53262
G1 X97.209 Y120.037 E17.67797
G1 X95.874 Y119.266 E17.82331
G1 X94.614 Y118.377 E17.96866
G1 X93.441 Y117.377 E18.11401
G1 X92.363 Y116.275 E18.25936
G1 X91.390 Y115.079 E18.40470
G1 X90.530 Y113.799 E18.55005
G1 X89.790 Y112.447 E18.69540
G1 X89.176 Y111.033 E18.84074
G1 X88.693 Y109.569 E18.98609
G1 X88.345 Y108.067 E19.13144
G1 X88.135 Y106.540 E19.27679
G1 X88.065 Y105.000 E19.42213
G1 X88.135 Y103.460 E19.56748
G1 X88.345 Y101.933 E19.71283
G1 X88.693 Y100.431 E19.85818
G1 X89.173 Y98.974 E20.00285
G1 X89.790 Y97.553 E20.14886
G1 X90.530 Y96.201 E20.29422
G1 X91.390 Y94.921 E20.43956
G1 X92.363 Y93.725 E20.58491
G1 X93.441 Y92.623 E20.73026
G1 X94.614 Y91.623 E20.87560
G1 X95.874 Y90.734 E21.02095
G1 X97.209 Y89.963 E21.16630
G1 X98.608 Y89.317 E21.31165
G1 X100.061 Y88.801 E21.45699
G1 X101.554 Y88.419 E21.60234
G1 X103.076 Y88.174 E21.74769
G1 X104.607 Y88.069 E21.89236
G1 X106.156 Y88.104 E22.03837
G1 X107.687 Y88.279 E22.18373
G1 X109.197 Y88.593 E22.32908
G1 X110.671 Y89.042 E22.47442
G1 X112.099 Y89.624 E22.61977
G1 X113.468 Y90.333 E22.76512
G1 X114.766 Y91.164 E22.91047
G1 X115.984 Y92.110 E23.05581
G1 X117.111 Y93.162 E23.20116
G1 X118.137 Y94.312 E23.34651
G1 X119.054 Y95.551 E23.49185
G1 X119.855 Y96.868 E23.63720
G1 X120.530 Y98.246 E23.78187
G1 X121.083 Y99.693 E23.92789
G1 X121.499 Y101.178 E24.07324
G1 X121.778 Y102.694 E24.21859
G1 X121.918 Y104.229 E24.36394
G1 X121.918 Y105.771 E24.50928
G1 X121.778 Y107.306 E24.65463
G1 X121.499 Y108.822 E24.79998
G1 X121.083 Y110.307 E24.94533
G1 X120.533 Y111.747 E25.09067
G1 X119.855 Y113.132 E25.23602
G1 X119.054 Y114.449 E25.38137
G1 X118.208 Y115.591 E25.51540
G1 X118.422 Y116.435 F7200.000
G1 E24.26540 F2400.00000
G1 F5760.000
G1 X117.115 Y116.833 E23.61069
G1 X115.984 Y117.890 E22.99768
G1 X114.766 Y118.836 E22.38742
G1 X113.468 Y119.667 E21.77720
G1 X112.099 Y120.376 E21.16697
G1 X111.013 Y120.818 E20.70290
G1 E20.51540 F2400.00000
G92 E0
G1 X121.602 Y133.755 F7200.000
G1 E5.00000 F2400.00000
G1 F1800.000
G1 X88.398 Y133.755 E8.13050
G1 X71.796 Y105.000 E11.26100
G1 X88.398 Y76.245 E14.39150
G1 X121.602 Y76.245 E17.52200
G1 X138.204 Y105.000 E20.65250
G1 X121.662 Y133.651 E23.77169
G1 X122.069 Y134.565 F7200.000
G1 F1800.000
G1 X87.931 Y134.565 E26.99036
G1 X70.861 Y105.000 E30.20903
G1 X87.931 Y75.435 E33.42771
G1 X122.069 Y75.435 E36.64638
G1 X139.139 Y105.000 E39.86505
G1 X122.129 Y134.461 E43.07241
G1 X121.377 Y134.165 F7200.000
G1 E41.82241 F2400.00000
G1 F5760.000
G1 X113.129 Y134.488 E38.25991
G1 E38.07241 F2400.00000
G92 E0
G1 X106.374 Y133.512 F7200.000
G1 E5.00000 F2400.00000
G1 F1800.000
G1 X74.461 Y101.599 E9.29009
G1 X74.039 Y102.331 E9.37045
G1 X104.855 Y133.148 E13.51313
G1 X103.700 Y133.148 E13.62291
G1 X73.616 Y103.064 E17.66717
G1 X73.193 Y103.796 E17.74753
G1 X102.545 Y133.148 E21.69337
G1 X101.390 Y133.148 E21.80314
G1 X72.771 Y104.528 E25.65056
G1 X72.498 Y105.000 E25.70239
G1 X73.058 Y105.970 E25.80885
G1 X100.236 Y133.148 E29.46240
G1 X99.081 Y133.148 E29.57217
G1 X74.635 Y108.702 E32.85842
G1 X76.213 Y111.435 E33.15832
G1 X97.926 Y133.148 E36.07725
G1 X96.771 Y133.148 E36.18703
G1 X77.790 Y114.167 E38.73865
G1 X79.368 Y116.899 E39.03856
G1 X95.616 Y133.148 E41.22287
G1 X94.462 Y133.148 E41.33265
G1 X80.945 Y119.631 E43.14965
G1 X82.523 Y122.364 E43.44956
G1 X93.307 Y133.148 E44.89926
G1 X92.152 Y133.148 E45.00903
G1 X84.100 Y125.096 E46.09143
G1 X85.678 Y127.828 E46.39133
G1 X90.997 Y133.148 E47.10642
G1 X89.842 Y133.148 E47.21619
G1 X86.260 Y129.565 E47.69782
G1 E46.44782 F2400.00000
G1 F5760.000
G1 X89.842 Y133.148 E44.44223
G1 X90.997 Y133.148 E43.98512
G1 X89.032 Y131.183 E42.88532
G1 E42.69782 F2400.00000
G92 E0
G1 X101.316 Y76.488 F7200.000
G1 E5.00000 F2400.00000
G1 F1800.000
G1 X113.671 Y88.842 E6.66082
G1 X112.694 Y88.336 E6.76541
G1 X111.539 Y87.865 E6.88394
G1 X100.526 Y76.852 E8.36445
G1 X99.371 Y76.852 E8.47422
G1 X109.820 Y87.301 E9.87885
G1 X109.548 Y87.218 E9.90581
G1 X108.329 Y86.965 E10.02423
G1 X98.216 Y76.852 E11.38366
G1 X97.061 Y76.852 E11.49343
G1 X106.981 Y86.772 E12.82692
G1 X106.252 Y86.688 E12.89664
G1 X105.731 Y86.677 E12.94618
G1 X95.907 Y76.852 E14.26691
G1 X94.752 Y76.852 E14.37668
G1 X104.552 Y86.653 E15.69414
G1 X103.471 Y86.726 E15.79713
G1 X93.597 Y76.852 E17.12453
G1 X92.442 Y76.852 E17.23430
G1 X102.432 Y86.842 E18.57725
G1 X101.437 Y87.002 E18.67304
G1 X91.287 Y76.852 E20.03749
G1 X90.133 Y76.852 E20.14726
G1 X100.505 Y87.224 E21.54159
G1 X99.590 Y87.464 E21.63150
G1 X88.978 Y76.852 E23.05806
G1 X88.749 Y76.852 E23.07981
G1 X88.410 Y77.439 E23.14425
G1 X98.738 Y87.767 E24.53260
G1 X98.073 Y88.003 E24.59966
G1 X97.899 Y88.083 E24.61784
G1 X87.987 Y78.172 E25.95030
G1 X87.565 Y78.904 E26.03066
G1 X97.109 Y88.448 E27.31374
G1 X96.556 Y88.704 E27.37167
G1 X96.336 Y88.830 E27.39575
G1 X87.142 Y79.636 E28.63178
G1 X86.719 Y80.368 E28.71214
G1 X95.604 Y89.253 E29.90657
G1 X95.109 Y89.539 E29.96095
G1 X94.890 Y89.693 E29.98642
G1 X86.297 Y81.100 E31.14165
G1 X85.874 Y81.832 E31.22201
G1 X94.213 Y90.171 E32.34306
G1 X93.744 Y90.502 E32.39764
G1 X93.553 Y90.666 E32.42155
G1 X85.451 Y82.564 E33.51063
G1 X85.028 Y83.296 E33.59098
G1 X92.929 Y91.197 E34.65306
G1 X92.472 Y91.586 E34.71011
G1 X92.320 Y91.742 E34.73087
G1 X84.606 Y84.028 E35.76784
G1 X84.183 Y84.761 E35.84820
G1 X91.749 Y92.326 E36.86526
G1 X91.304 Y92.781 E36.92570
G1 X91.190 Y92.922 E36.94298
G1 X83.760 Y85.493 E37.94170
G1 X83.338 Y86.225 E38.02206
G1 X90.672 Y93.559 E39.00796
G1 X90.164 Y94.205 E39.08614
G1 X82.915 Y86.957 E40.06056
G1 X82.492 Y87.689 E40.14092
G1 X89.699 Y94.896 E41.10976
G1 X89.245 Y95.596 E41.18912
G1 X82.070 Y88.421 E42.15371
G1 X81.647 Y89.153 E42.23407
G1 X88.836 Y96.343 E43.20056
G1 X88.515 Y96.929 E43.26413
G1 X88.441 Y97.102 E43.28199
G1 X81.224 Y89.885 E44.25208
G1 X80.802 Y90.618 E44.33244
G1 X88.091 Y97.907 E45.31239
G1 X87.848 Y98.469 E45.37057
G1 X87.761 Y98.732 E45.39689
G1 X80.379 Y91.350 E46.38925
G1 X79.956 Y92.082 E46.46961
G1 X87.474 Y99.600 E47.48027
G1 X87.326 Y100.048 E47.52514
G1 X87.221 Y100.502 E47.56940
G1 X79.534 Y92.814 E48.60288
G1 X79.111 Y93.546 E48.68324
G1 X87.004 Y101.439 E49.74434
G1 X86.949 Y101.676 E49.76742
G1 X86.845 Y102.435 E49.84026
G1 X78.688 Y94.278 E50.93679
G1 X78.265 Y95.010 E51.01715
G1 X86.716 Y103.461 E52.15315
G1 X86.666 Y104.565 E52.25825
G1 X77.843 Y95.742 E53.44431
G1 X77.420 Y96.474 E53.52467
G1 X86.679 Y105.734 E54.76939
G1 X86.722 Y106.669 E54.85840
G1 X86.764 Y106.973 E54.88754
G1 X76.997 Y97.207 E56.20042
G1 X76.575 Y97.939 E56.28078
G1 X86.948 Y108.312 E57.67522
G1 X87.294 Y109.813 E57.82169
G1 X76.152 Y98.671 E59.31955
G1 X75.729 Y99.403 E59.39991
G1 X87.842 Y111.516 E61.02831
G1 X88.516 Y113.071 E61.18936
G1 X88.846 Y113.674 E61.25471
G1 X75.307 Y100.135 E63.07478
G1 X74.884 Y100.867 E63.15514
G1 X107.164 Y133.148 E67.49466
G1 X108.319 Y133.148 E67.60444
G1 X96.348 Y121.177 E69.21373
G1 X96.556 Y121.296 E69.23653
G1 X98.073 Y121.997 E69.39535
G1 X98.461 Y122.135 E69.43455
G1 X109.474 Y133.148 E70.91501
G1 X110.629 Y133.148 E71.02479
G1 X100.172 Y122.691 E72.43056
G1 X101.266 Y122.970 E72.53790
G1 X101.672 Y123.036 E72.57697
G1 X111.784 Y133.148 E73.93636
G1 X112.938 Y133.148 E74.04613
G1 X103.034 Y123.244 E75.37755
G1 X104.274 Y123.328 E75.49565
G1 X114.093 Y133.148 E76.81567
G1 X115.248 Y133.148 E76.92544
G1 X105.431 Y123.330 E78.24522
G1 X106.253 Y123.311 E78.32338
G1 X106.534 Y123.279 E78.35035
G1 X116.403 Y133.148 E79.67698
G1 X117.558 Y133.148 E79.78675
G1 X107.571 Y123.161 E81.12931
G1 X107.912 Y123.122 E81.16200
G1 X108.553 Y122.989 E81.22422
G1 X118.713 Y133.148 E82.58993
G1 X119.867 Y133.148 E82.69971
G1 X109.509 Y122.790 E84.09212
G1 X110.397 Y122.523 E84.18025
G1 X121.022 Y133.148 E85.60856
G1 X121.251 Y133.148 E85.63032
G1 X121.590 Y132.561 E85.69475
G1 X111.272 Y122.243 E87.08175
G1 X112.093 Y121.909 E87.16597
G1 X122.013 Y131.829 E88.49950
G1 X122.435 Y131.096 E88.57986
G1 X112.897 Y121.558 E89.86208
G1 X113.658 Y121.164 E89.94351
G1 X122.858 Y130.364 E91.18029
G1 X123.281 Y129.632 E91.26065
G1 X114.401 Y120.752 E92.45441
G1 X115.105 Y120.302 E92.53388
G1 X123.703 Y128.900 E93.68978
G1 X124.126 Y128.168 E93.77014
G1 X115.792 Y119.834 E94.89051
G1 X116.442 Y119.329 E94.96875
G1 X124.549 Y127.436 E96.05855
G1 X124.971 Y126.704 E96.13891
G1 X117.077 Y118.809 E97.20021
G1 X117.674 Y118.251 E97.27787
G1 X125.394 Y125.972 E98.31576
G1 X125.817 Y125.240 E98.39611
G1 X118.258 Y117.681 E99.41223
G1 X118.803 Y117.071 E99.48998
G1 X126.240 Y124.507 E100.48972
G1 X126.662 Y123.775 E100.57008
G1 X119.337 Y116.450 E101.55489
G1 X119.828 Y115.786 E101.63337
G1 X127.085 Y123.043 E102.60895
G1 X127.508 Y122.311 E102.68930
G1 X120.309 Y115.113 E103.65696
G1 X120.746 Y114.395 E103.73685
G1 X127.930 Y121.579 E104.70262
G1 X128.353 Y120.847 E104.78298
G1 X121.172 Y113.666 E105.74833
G1 X121.552 Y112.891 E105.83038
G1 X128.776 Y120.115 E106.80152
G1 X129.198 Y119.383 E106.88188
G1 X121.916 Y112.100 E107.86090
G1 X122.234 Y111.264 E107.94595
G1 X129.621 Y118.650 E108.93894
G1 X130.044 Y117.918 E109.01930
G1 X122.528 Y110.402 E110.02969
G1 X122.780 Y109.500 E110.11874
G1 X130.466 Y117.186 E111.15198
G1 X130.889 Y116.454 E111.23234
G1 X122.989 Y108.554 E112.29436
G1 X123.169 Y107.579 E112.38862
G1 X131.312 Y115.722 E113.48332
G1 X131.734 Y114.990 E113.56368
G1 X123.272 Y106.527 E114.70130
G1 X123.335 Y105.835 E114.76735
G1 X123.335 Y105.436 E114.80534
G1 X132.157 Y114.258 E115.99129
G1 X132.580 Y113.526 E116.07165
G1 X123.335 Y104.281 E117.31442
G1 X123.231 Y103.022 E117.43452
G1 X133.003 Y112.793 E118.74814
G1 X133.425 Y112.061 E118.82850
G1 X123.030 Y101.666 E120.22602
G1 X122.881 Y100.858 E120.30412
G1 X122.688 Y100.169 E120.37209
G1 X133.848 Y111.329 E121.87236
G1 X134.271 Y110.597 E121.95272
G1 X122.126 Y98.453 E123.58535
G1 X121.831 Y97.681 E123.66385
G1 X121.181 Y96.353 E123.80441
G1 X134.693 Y109.865 E125.62085
G1 X135.116 Y109.133 E125.70121
G1 X102.835 Y76.852 E130.04074
G1 X103.990 Y76.852 E130.15052
G1 X135.539 Y108.401 E134.39163
G1 X135.961 Y107.669 E134.47199
G1 X105.145 Y76.852 E138.61468
G1 X106.300 Y76.852 E138.72445
G1 X136.384 Y106.937 E142.76872
G1 X136.807 Y106.204 E142.84908
G1 X107.455 Y76.852 E146.79493
G1 X108.609 Y76.852 E146.90470
G1 X137.229 Y105.472 E150.75213
G1 X137.502 Y105.000 E150.80398
G1 X136.942 Y104.030 E150.91040
G1 X109.764 Y76.852 E154.56399
G1 X110.919 Y76.852 E154.67377
G1 X135.365 Y101.298 E157.96005
G1 X133.787 Y98.566 E158.25995
